X:28
T:Mug of Brown Ale
S:Bernie Waugh
R:Jig
M:6/8
L:1/8
K:A Mix
|:g/f/|\
"Am"eAA fAA|"C"~gfgage|"G"dBA G2A|"Em"BAB dBd|
"Am"eAA fAA|"C"~gfgage|"G"dBB "Em"gBB|"Am"~BAG A2:|
|:d|\
"Am"efg a2a|aba ~age|"Em"dBd g2a|"C"bag fed|
"D(or F)"efg a2a|aba ~age|"G"dBB "Em"gBB|"Am"~BAG A2:|

